X: 1
T:The Sea Gull  "CYMRU"
M:6/8
L:1/8
Q:80
C:D. MacLeod
S:Jig
K:HP
|: e|
agaf/2a3/2e|
{g}fec{g}B{d}ce|
agaf/2a3/2e|  !
{g}fec{g}A{d}ce| |
agaf/2a3/2e|
{g}fec{g}B{d}ce|  !
af{g}e{g}f/2a3/2e|
{g}fec{g}A{d}ce:| |:
{g}fc{G}c{gcd}cB{G}B|  !
{g}fec{g}B{d}ce|
{g}fc{G}c{gcd}cB{G}B|
{g}fec{g}A{d}ce| |  !
{g}fc{G}c{gcd}cB{G}B|
{g}fec{g}B{d}ce|
af{g}e{g}f/2a3/2e|  !
{g}fec{g}A{d}ce:| |:
{g}cfe{g}B{d}ce|
{g}fec{g}B{d}ce|  !
{g}cfe{g}B{d}ce|
{g}fec{g}A{d}ce| |
{g}cfe{g}B{d}ce|  !
{g}fec{g}B{d}ce|
af{g}e{g}f/2a3/2e|
{g}fec{g}A{d}ce:| |:  !
aec{g}B{d}ce|
{g}fec{g}B{d}ce|
aec{g}B{d}ce|  !
{g}fec{g}A{d}ce| |
aec{g}B{d}ce|
{g}fec{g}B{d}ce|  !
af{g}e{g}f/2a3/2e|
{g}fec{g}A{d}ce:|
